img/ftd/icon.svg

<svg width="32" height="32" viewBox="0 0 32 32" fill="none" xmlns="http://www.w3.org/2000/svg">
<rect width="32" height="32" rx="8" fill="url(#paint0_linear_8_1348)"/>
<g clip-path="url(#clip0_8_1348)">
<path d="M7.4806 14.8008C5.37803 16.5981 4.53228 18.507 4.33331 19.379L6.77518 21.2866C6.97414 20.4146 7.8199 18.5057 9.92247 16.7084C10.8867 15.8841 11.9702 15.4746 13.1333 15.035C14.5063 14.516 15.9901 13.9552 17.5194 12.6206C20.8295 9.73199 21.6434 7.11585 21.6434 7.11585L19.2015 5.20825C19.2015 5.20825 18.3876 7.82439 15.0775 10.713C13.5483 12.0476 12.0644 12.6084 10.6914 13.1274C9.52836 13.567 8.44484 13.9765 7.4806 14.8008Z" fill="url(#paint1_linear_8_1348)"/>
<path d="M14.4806 20.3057C12.378 22.103 11.5323 24.0119 11.3333 24.884L13.7752 26.7916C13.9741 25.9195 14.8199 24.0107 16.9224 22.2133C17.9347 21.348 19.0465 20.9006 20.2579 20.413C21.5627 19.8878 22.9831 19.3161 24.5194 18.1256C26.4186 16.6539 27.6666 14.5282 27.6666 14.5282L25.2248 12.6206C25.2248 12.6206 24.9021 13.7531 22.0775 16.218C20.5483 17.5526 19.0644 18.1134 17.6914 18.6324C16.5283 19.072 15.4448 19.4815 14.4806 20.3057Z" fill="url(#paint2_linear_8_1348)"/>
<path d="M7.7519 22.1587C7.95087 21.2866 8.79662 19.3777 10.8992 17.5804C11.8634 16.7562 12.9469 16.3466 14.11 15.9071C15.483 15.3881 16.9669 14.8272 18.4961 13.4927C22.6181 9.89551 23.4884 5.9713 23.4884 5.9713L25.9302 7.8789C25.9302 7.8789 24.8449 12.2936 20.938 15.4003C19.4002 16.623 17.965 17.1932 16.6445 17.7178C15.4458 18.1941 14.3416 18.6328 13.3411 19.488C11.2385 21.2853 10.3927 23.1942 10.1938 24.0663L7.7519 22.1587Z" fill="url(#paint3_linear_8_1348)"/>
</g>
<defs>
<linearGradient id="paint0_linear_8_1348" x1="16" y1="0" x2="16" y2="32" gradientUnits="userSpaceOnUse">
<stop stop-color="#373740"/>
<stop offset="0.483196" stop-color="#1A1A1F"/>
<stop offset="1" stop-color="#151519"/>
</linearGradient>
<linearGradient id="paint1_linear_8_1348" x1="23.2185" y1="5.20825" x2="5.34781" y2="5.20825" gradientUnits="userSpaceOnUse">
<stop stop-color="#FEDA3B"/>
<stop offset="0.47" stop-color="#EF5541"/>
<stop offset="0.815" stop-color="#801FDB"/>
<stop offset="1" stop-color="#7E2A89"/>
</linearGradient>
<linearGradient id="paint2_linear_8_1348" x1="23.2185" y1="5.20825" x2="5.34781" y2="5.20825" gradientUnits="userSpaceOnUse">
<stop stop-color="#FEDA3B"/>
<stop offset="0.47" stop-color="#EF5541"/>
<stop offset="0.815" stop-color="#801FDB"/>
<stop offset="1" stop-color="#7E2A89"/>
</linearGradient>
<linearGradient id="paint3_linear_8_1348" x1="23.2185" y1="5.20825" x2="5.34781" y2="5.20825" gradientUnits="userSpaceOnUse">
<stop stop-color="#FEDA3B"/>
<stop offset="0.47" stop-color="#EF5541"/>
<stop offset="0.815" stop-color="#801FDB"/>
<stop offset="1" stop-color="#7E2A89"/>
</linearGradient>
<clipPath id="clip0_8_1348">
<rect width="23.3333" height="23.3333" fill="white" transform="translate(4.33331 4.33325)"/>
</clipPath>
</defs>
</svg>

<svg xmlns="http://www.w3.org/2000/svg" width="32" height="32" fill="none"><rect width="32" height="32" fill="url(#a)" rx="8"/><g clip-path="url(#b)"><path fill="url(#c)" d="M7.48 14.8c-2.102 1.798-2.948 3.707-3.147 4.58l2.442 1.907c.2-.872 1.045-2.781 3.147-4.579.965-.824 2.048-1.233 3.211-1.673 1.373-.519 2.857-1.08 4.386-2.414 3.31-2.889 4.124-5.505 4.124-5.505l-2.441-1.908s-.814 2.616-4.125 5.505c-1.529 1.335-3.013 1.896-4.386 2.415-1.163.439-2.246.849-3.21 1.673Z"/><path fill="url(#d)" d="M14.48 20.306c-2.102 1.797-2.948 3.706-3.147 4.578l2.442 1.908c.2-.872 1.045-2.781 3.147-4.579 1.013-.865 2.125-1.312 3.336-1.8 1.305-.525 2.725-1.097 4.261-2.287 1.9-1.472 3.148-3.598 3.148-3.598l-2.442-1.907s-.323 1.132-3.148 3.597c-1.529 1.335-3.013 1.895-4.386 2.414-1.163.44-2.246.85-3.21 1.674Z"/><path fill="url(#e)" d="M7.752 22.159c.199-.872 1.045-2.781 3.147-4.578.964-.825 2.048-1.234 3.211-1.674 1.373-.519 2.857-1.08 4.386-2.414 4.122-3.597 4.992-7.522 4.992-7.522L25.93 7.88s-1.085 4.415-4.992 7.521c-1.538 1.223-2.973 1.793-4.293 2.318-1.2.476-2.303.915-3.304 1.77-2.102 1.797-2.948 3.706-3.147 4.578L7.752 22.16Z"/></g><defs><linearGradient id="a" x1="16" x2="16" y1="0" y2="32" gradientUnits="userSpaceOnUse"><stop stop-color="#373740"/><stop offset=".483" stop-color="#1A1A1F"/><stop offset="1" stop-color="#151519"/></linearGradient><linearGradient id="c" x1="23.218" x2="5.348" y1="5.208" y2="5.208" gradientUnits="userSpaceOnUse"><stop stop-color="#FEDA3B"/><stop offset=".47" stop-color="#EF5541"/><stop offset=".815" stop-color="#801FDB"/><stop offset="1" stop-color="#7E2A89"/></linearGradient><linearGradient id="d" x1="23.218" x2="5.348" y1="5.208" y2="5.208" gradientUnits="userSpaceOnUse"><stop stop-color="#FEDA3B"/><stop offset=".47" stop-color="#EF5541"/><stop offset=".815" stop-color="#801FDB"/><stop offset="1" stop-color="#7E2A89"/></linearGradient><linearGradient id="e" x1="23.218" x2="5.348" y1="5.208" y2="5.208" gradientUnits="userSpaceOnUse"><stop stop-color="#FEDA3B"/><stop offset=".47" stop-color="#EF5541"/><stop offset=".815" stop-color="#801FDB"/><stop offset="1" stop-color="#7E2A89"/></linearGradient><clipPath id="b"><path fill="#fff" d="M4.333 4.333h23.333v23.333H4.333z"/></clipPath></defs></svg>
